svgs/thin/pi.svg

<svg xmlns="http://www.w3.org/2000/svg" viewBox="0 0 448 512"><!--! Font Awesome Pro 6.3.0 by @fontawesome - https://fontawesome.com License - https://fontawesome.com/license (Commercial License) Copyright 2023 Fonticons, Inc. --><path d="M445.7 370.3c3.125 3.125 3.125 8.188 0 11.31l-50.75 50.75C385 442.3 371.3 448 357.3 448C327.9 448 304 424.1 304 394.8V96h-160v132.6c0 77.05-22.59 151.7-65.34 215.8C77.13 446.8 74.56 448 72 448c-1.531 0-3.062-.4375-4.438-1.344c-3.688-2.453-4.656-7.422-2.219-11.09C106.3 374.1 128 302.5 128 228.6V96H8C3.594 96 0 92.42 0 87.1S3.594 80 8 80h432C444.4 80 448 83.58 448 87.1S444.4 96 440 96H320v298.8C320 415.3 336.7 432 357.3 432c9.812 0 19.44-3.969 26.34-10.91l50.75-50.75C437.5 367.2 442.5 367.2 445.7 370.3z"/></svg>

<svg xmlns="http://www.w3.org/2000/svg" viewBox="0 0 448 512"><!-- Font Awesome Pro 6.0.0-alpha2 by @fontawesome - https://fontawesome.com License - https://fontawesome.com/license (Commercial License) --><path d="M445.656 370.344C448.781 373.469 448.781 378.531 445.656 381.656L394.906 432.406C385.031 442.312 371.281 448 357.25 448C327.875 448 304 424.109 304 394.75V96H144V228.625C144 305.672 121.406 380.297 78.656 444.437C77.125 446.75 74.562 448 72 448C70.469 448 68.938 447.562 67.562 446.656C63.875 444.203 62.906 439.234 65.344 435.562C106.344 374.062 128 302.5 128 228.625V96H8C3.594 96 0 92.422 0 88S3.594 80 8 80H440C444.406 80 448 83.578 448 88S444.406 96 440 96H320V394.75C320 415.297 336.719 432 357.25 432C367.062 432 376.688 428.031 383.594 421.094L434.344 370.344C437.469 367.219 442.531 367.219 445.656 370.344Z"/></svg>
